static/img/kroki/520eec25881c34655c444c9eb0159cdd.svg

<?xml version="1.0" encoding="us-ascii" standalone="no"?><svg xmlns="http://www.w3.org/2000/svg" xmlns:xlink="http://www.w3.org/1999/xlink" contentStyleType="text/css" height="1074px" preserveAspectRatio="none" style="width:617px;height:1074px;" version="1.1" viewBox="0 0 617 1074" width="617px" zoomAndPan="magnify"><defs/><g><!--class aws_route53_resource_record--><g id="elem_aws_route53_resource_record"><rect codeLine="23" fill="#3D176E" height="39.7891" id="aws_route53_resource_record" rx="2.5" ry="2.5" style="stroke:#000D19;stroke-width:0.5;" width="292" x="7" y="1028.3"/><ellipse cx="22" cy="1048.1945" fill="#ADD1B2" rx="11" ry="11" style="stroke:#181818;stroke-width:1.0;"/><path d="M24.9688,1053.8352 Q24.3906,1054.132 23.75,1054.2727 Q23.1094,1054.4289 22.4063,1054.4289 Q19.9063,1054.4289 18.5781,1052.7883 Q17.2656,1051.132 17.2656,1048.007 Q17.2656,1044.882 18.5781,1043.2258 Q19.9063,1041.5695 22.4063,1041.5695 Q23.1094,1041.5695 23.75,1041.7258 Q24.4063,1041.882 24.9688,1042.1789 L24.9688,1044.8977 Q24.3438,1044.3195 23.75,1044.0539 Q23.1563,1043.7727 22.5313,1043.7727 Q21.1875,1043.7727 20.5,1044.8508 Q19.8125,1045.9133 19.8125,1048.007 Q19.8125,1050.1008 20.5,1051.1789 Q21.1875,1052.2414 22.5313,1052.2414 Q23.1563,1052.2414 23.75,1051.9758 Q24.3438,1051.6945 24.9688,1051.1164 L24.9688,1053.8352 Z " fill="#000000"/><text fill="#D9B8FF" font-family="Helvetica" font-size="17" lengthAdjust="spacing" textLength="250" x="41" y="1054.0798">aws_route53_resource_record</text></g><!--class digitalocean_domain_record--><g id="elem_digitalocean_domain_record"><rect codeLine="26" fill="#3D176E" height="39.7891" id="digitalocean_domain_record" rx="2.5" ry="2.5" style="stroke:#000D19;stroke-width:0.5;" width="276" x="334" y="1028.3"/><ellipse cx="349" cy="1048.1945" fill="#ADD1B2" rx="11" ry="11" style="stroke:#181818;stroke-width:1.0;"/><path d="M351.9688,1053.8352 Q351.3906,1054.132 350.75,1054.2727 Q350.1094,1054.4289 349.4063,1054.4289 Q346.9063,1054.4289 345.5781,1052.7883 Q344.2656,1051.132 344.2656,1048.007 Q344.2656,1044.882 345.5781,1043.2258 Q346.9063,1041.5695 349.4063,1041.5695 Q350.1094,1041.5695 350.75,1041.7258 Q351.4063,1041.882 351.9688,1042.1789 L351.9688,1044.8977 Q351.3438,1044.3195 350.75,1044.0539 Q350.1563,1043.7727 349.5313,1043.7727 Q348.1875,1043.7727 347.5,1044.8508 Q346.8125,1045.9133 346.8125,1048.007 Q346.8125,1050.1008 347.5,1051.1789 Q348.1875,1052.2414 349.5313,1052.2414 Q350.1563,1052.2414 350.75,1051.9758 Q351.3438,1051.6945 351.9688,1051.1164 L351.9688,1053.8352 Z " fill="#000000"/><text fill="#D9B8FF" font-family="Helvetica" font-size="17" lengthAdjust="spacing" textLength="234" x="368" y="1054.0798">digitalocean_domain_record</text></g><!--class dns_record--><g id="elem_dns_record"><rect codeLine="29" fill="#3D176E" height="468.5391" id="dns_record" rx="2.5" ry="2.5" style="stroke:#000D19;stroke-width:0.5;" width="196" x="214" y="438.76"/><ellipse cx="257.8" cy="458.6545" fill="#ADD1B2" rx="11" ry="11" style="stroke:#181818;stroke-width:1.0;"/><path d="M260.7688,464.2952 Q260.1906,464.592 259.55,464.7327 Q258.9094,464.8889 258.2063,464.8889 Q255.7063,464.8889 254.3781,463.2483 Q253.0656,461.592 253.0656,458.467 Q253.0656,455.342 254.3781,453.6858 Q255.7063,452.0295 258.2063,452.0295 Q258.9094,452.0295 259.55,452.1858 Q260.2063,452.342 260.7688,452.6389 L260.7688,455.3577 Q260.1438,454.7795 259.55,454.5139 Q258.9563,454.2327 258.3313,454.2327 Q256.9875,454.2327 256.3,455.3108 Q255.6125,456.3733 255.6125,458.467 Q255.6125,460.5608 256.3,461.6389 Q256.9875,462.7014 258.3313,462.7014 Q258.9563,462.7014 259.55,462.4358 Q260.1438,462.1545 260.7688,461.5764 L260.7688,464.2952 Z " fill="#000000"/><text fill="#D9B8FF" font-family="Helvetica" font-size="17" lengthAdjust="spacing" textLength="90" x="283.2" y="464.5398">dns_record</text><line style="stroke:#000D19;stroke-width:0.5;" x1="215" x2="409" y1="478.5491" y2="478.5491"/><text fill="#D9B8FF" font-family="sans-serif" font-size="14" font-weight="bold" lengthAdjust="spacing" textLength="94" x="225" y="500.5442">record_data</text><text fill="#D9B8FF" font-family="sans-serif" font-size="14" lengthAdjust="spacing" textLength="48" x="319" y="500.5442">: string</text><text fill="#D9B8FF" font-family="sans-serif" font-size="14" font-weight="bold" lengthAdjust="spacing" textLength="110" x="225" y="526.8411">record_expire</text><text fill="#D9B8FF" font-family="sans-serif" font-size="14" lengthAdjust="spacing" textLength="44" x="335" y="526.8411">: int64</text><text fill="#D9B8FF" font-family="sans-serif" font-size="14" font-weight="bold" lengthAdjust="spacing" textLength="98" x="225" y="553.1379">record_flags</text><text fill="#D9B8FF" font-family="sans-serif" font-size="14" lengthAdjust="spacing" textLength="44" x="323" y="553.1379">: int64</text><text fill="#D9B8FF" font-family="sans-serif" font-size="14" font-weight="bold" lengthAdjust="spacing" textLength="130" x="225" y="579.4348">record_minimum</text><text fill="#D9B8FF" font-family="sans-serif" font-size="14" lengthAdjust="spacing" textLength="44" x="355" y="579.4348">: int64</text><text fill="#D9B8FF" font-family="sans-serif" font-size="14" font-weight="bold" lengthAdjust="spacing" textLength="117" x="225" y="605.7317">record_mname</text><text fill="#D9B8FF" font-family="sans-serif" font-size="14" lengthAdjust="spacing" textLength="48" x="342" y="605.7317">: string</text><text fill="#D9B8FF" font-family="sans-serif" font-size="14" font-weight="bold" lengthAdjust="spacing" textLength="93" x="225" y="632.0286">record_port</text><text fill="#D9B8FF" font-family="sans-serif" font-size="14" lengthAdjust="spacing" textLength="44" x="318" y="632.0286">: int64</text><text fill="#D9B8FF" font-family="sans-serif" font-size="14" font-weight="bold" lengthAdjust="spacing" textLength="117" x="225" y="658.3254">record_priority</text><text fill="#D9B8FF" font-family="sans-serif" font-size="14" lengthAdjust="spacing" textLength="44" x="342" y="658.3254">: int64</text><text fill="#D9B8FF" font-family="sans-serif" font-size="14" font-weight="bold" lengthAdjust="spacing" textLength="119" x="225" y="684.6223">record_refresh</text><text fill="#D9B8FF" font-family="sans-serif" font-size="14" lengthAdjust="spacing" textLength="44" x="344" y="684.6223">: int64</text><text fill="#D9B8FF" font-family="sans-serif" font-size="14" font-weight="bold" lengthAdjust="spacing" textLength="99" x="225" y="710.9192">record_retry</text><text fill="#D9B8FF" font-family="sans-serif" font-size="14" lengthAdjust="spacing" textLength="44" x="324" y="710.9192">: int64</text><text fill="#D9B8FF" font-family="sans-serif" font-size="14" font-weight="bold" lengthAdjust="spacing" textLength="110" x="225" y="737.2161">record_rname</text><text fill="#D9B8FF" font-family="sans-serif" font-size="14" lengthAdjust="spacing" textLength="48" x="335" y="737.2161">: string</text><text fill="#D9B8FF" font-family="sans-serif" font-size="14" font-weight="bold" lengthAdjust="spacing" textLength="103" x="225" y="763.5129">record_serial</text><text fill="#D9B8FF" font-family="sans-serif" font-size="14" lengthAdjust="spacing" textLength="44" x="328" y="763.5129">: int64</text><text fill="#D9B8FF" font-family="sans-serif" font-size="14" font-weight="bold" lengthAdjust="spacing" textLength="85" x="225" y="789.8098">record_tag</text><text fill="#D9B8FF" font-family="sans-serif" font-size="14" lengthAdjust="spacing" textLength="48" x="310" y="789.8098">: string</text><text fill="#D9B8FF" font-family="sans-serif" font-size="14" font-weight="bold" lengthAdjust="spacing" textLength="76" x="225" y="816.1067">record_ttl</text><text fill="#D9B8FF" font-family="sans-serif" font-size="14" lengthAdjust="spacing" textLength="44" x="301" y="816.1067">: int64</text><text fill="#D9B8FF" font-family="sans-serif" font-size="14" font-weight="bold" lengthAdjust="spacing" textLength="95" x="225" y="842.4036">record_type</text><text fill="#D9B8FF" font-family="sans-serif" font-size="14" lengthAdjust="spacing" textLength="48" x="320" y="842.4036">: string</text><text fill="#D9B8FF" font-family="sans-serif" font-size="14" font-weight="bold" lengthAdjust="spacing" textLength="102" x="225" y="868.7004">record_value</text><text fill="#D9B8FF" font-family="sans-serif" font-size="14" lengthAdjust="spacing" textLength="48" x="327" y="868.7004">: string</text><text fill="#D9B8FF" font-family="sans-serif" font-size="14" font-weight="bold" lengthAdjust="spacing" textLength="114" x="225" y="894.9973">record_weight</text><text fill="#D9B8FF" font-family="sans-serif" font-size="14" lengthAdjust="spacing" textLength="44" x="339" y="894.9973">: int64</text></g><!--class resource--><g id="elem_resource"><rect codeLine="47" fill="#3D176E" height="310.7578" id="resource" rx="2.5" ry="2.5" style="stroke:#000D19;stroke-width:0.5;" width="227" x="198.5" y="7"/><ellipse cx="267.25" cy="26.8945" fill="#ADD1B2" rx="11" ry="11" style="stroke:#181818;stroke-width:1.0;"/><path d="M270.2188,32.5352 Q269.6406,32.832 269,32.9727 Q268.3594,33.1289 267.6563,33.1289 Q265.1563,33.1289 263.8281,31.4883 Q262.5156,29.832 262.5156,26.707 Q262.5156,23.582 263.8281,21.9258 Q265.1563,20.2695 267.6563,20.2695 Q268.3594,20.2695 269,20.4258 Q269.6563,20.582 270.2188,20.8789 L270.2188,23.5977 Q269.5938,23.0195 269,22.7539 Q268.4063,22.4727 267.7813,22.4727 Q266.4375,22.4727 265.75,23.5508 Q265.0625,24.6133 265.0625,26.707 Q265.0625,28.8008 265.75,29.8789 Q266.4375,30.9414 267.7813,30.9414 Q268.4063,30.9414 269,30.6758 Q269.5938,30.3945 270.2188,29.8164 L270.2188,32.5352 Z " fill="#000000"/><text fill="#D9B8FF" font-family="Helvetica" font-size="17" lengthAdjust="spacing" textLength="71" x="292.75" y="32.7798">resource</text><line style="stroke:#000D19;stroke-width:0.5;" x1="199.5" x2="424.5" y1="46.7891" y2="46.7891"/><text fill="#D9B8FF" font-family="sans-serif" font-size="14" font-weight="bold" lengthAdjust="spacing" textLength="29" x="209.5" y="68.7842">age</text><text fill="#D9B8FF" font-family="sans-serif" font-size="14" lengthAdjust="spacing" textLength="66" x="238.5" y="68.7842">: duration</text><text fill="#D9B8FF" font-family="sans-serif" font-size="14" font-weight="bold" lengthAdjust="spacing" textLength="43" x="209.5" y="95.0811">atime</text><text fill="#D9B8FF" font-family="sans-serif" font-size="14" lengthAdjust="spacing" textLength="70" x="252.5" y="95.0811">: datetime</text><text fill="#D9B8FF" font-family="sans-serif" font-size="14" font-weight="bold" lengthAdjust="spacing" textLength="43" x="209.5" y="121.3779">ctime</text><text fill="#D9B8FF" font-family="sans-serif" font-size="14" lengthAdjust="spacing" textLength="70" x="252.5" y="121.3779">: datetime</text><text fill="#D9B8FF" font-family="sans-serif" font-size="14" font-weight="bold" lengthAdjust="spacing" textLength="14" x="209.5" y="147.6748">id</text><text fill="#D9B8FF" font-family="sans-serif" font-size="14" lengthAdjust="spacing" textLength="48" x="223.5" y="147.6748">: string</text><text fill="#D9B8FF" font-family="sans-serif" font-size="14" font-weight="bold" lengthAdjust="spacing" textLength="33" x="209.5" y="173.9717">kind</text><text fill="#D9B8FF" font-family="sans-serif" font-size="14" lengthAdjust="spacing" textLength="48" x="242.5" y="173.9717">: string</text><text fill="#D9B8FF" font-family="sans-serif" font-size="14" font-weight="bold" lengthAdjust="spacing" textLength="90" x="209.5" y="200.2686">last_access</text><text fill="#D9B8FF" font-family="sans-serif" font-size="14" lengthAdjust="spacing" textLength="66" x="299.5" y="200.2686">: duration</text><text fill="#D9B8FF" font-family="sans-serif" font-size="14" font-weight="bold" lengthAdjust="spacing" textLength="90" x="209.5" y="226.5654">last_update</text><text fill="#D9B8FF" font-family="sans-serif" font-size="14" lengthAdjust="spacing" textLength="66" x="299.5" y="226.5654">: duration</text><text fill="#D9B8FF" font-family="sans-serif" font-size="14" font-weight="bold" lengthAdjust="spacing" textLength="48" x="209.5" y="252.8623">mtime</text><text fill="#D9B8FF" font-family="sans-serif" font-size="14" lengthAdjust="spacing" textLength="70" x="257.5" y="252.8623">: datetime</text><text fill="#D9B8FF" font-family="sans-serif" font-size="14" font-weight="bold" lengthAdjust="spacing" textLength="43" x="209.5" y="279.1592">name</text><text fill="#D9B8FF" font-family="sans-serif" font-size="14" lengthAdjust="spacing" textLength="48" x="252.5" y="279.1592">: string</text><text fill="#D9B8FF" font-family="sans-serif" font-size="14" font-weight="bold" lengthAdjust="spacing" textLength="34" x="209.5" y="305.4561">tags</text><text fill="#D9B8FF" font-family="sans-serif" font-size="14" lengthAdjust="spacing" textLength="171" x="243.5" y="305.4561">: dictionary[string, string]</text></g><!--reverse link dns_record to aws_route53_resource_record--><g id="link_dns_record_aws_route53_resource_record"><path codeLine="59" d="M206.5053,921.6099 C184.6553,972.8999 171.88,1002.88 161.22,1027.89 " fill="none" id="dns_record-backto-aws_route53_resource_record" style="stroke:#FFAF37;stroke-width:2.0;"/><polygon fill="none" points="213.56,905.05,200.9853,919.2584,212.0253,923.9615,213.56,905.05" style="stroke:#FFAF37;stroke-width:2.0;"/></g><!--reverse link dns_record to digitalocean_domain_record--><g id="link_dns_record_digitalocean_domain_record"><path codeLine="60" d="M417.5752,920.2626 C439.8652,972.2326 453.03,1002.94 463.82,1028.12 " fill="none" id="dns_record-backto-digitalocean_domain_record" style="stroke:#FFAF37;stroke-width:2.0;"/><polygon fill="none" points="410.48,903.72,412.0609,922.6277,423.0894,917.8976,410.48,903.72" style="stroke:#FFAF37;stroke-width:2.0;"/></g><!--reverse link resource to dns_record--><g id="link_resource_dns_record"><path codeLine="61" d="M312,336.07 C312,374.06 312,397.58 312,438.39 " fill="none" id="resource-backto-dns_record" style="stroke:#FFAF37;stroke-width:2.0;"/><polygon fill="none" points="312,318.07,306,336.07,318,336.07,312,318.07" style="stroke:#FFAF37;stroke-width:2.0;"/></g><!--SRC=[XPHDRzf048Rl_XMMSaD5WjA4KFMI8aNf9QgQtghA6dR7zWXxrveTXzAF_zur633sGcxM-pwpyoddf376if9jN6AvGdQHMvEfWA6C7vZjPcaBo_5Dca8wc_VDHslaJU0PIeoVi7X58GLzudjEQctGkVXzn_eCQfsnhOtUFoyCndaBZNIePG7EFOWmhMh1JZ5wiRfFqpxPV_HcfgVpEnnWbZLoYqmc4prTz94tKrtj-qYyq6-CfzsXFLl1GPc353lgQfKDqIboqEZ1lrZZLz2QJ1RVThHl-vhO89_fBpbeksde50hNJUC46QriArmEkiB5lKxdGVZB9JXIpUXYsBZ4kuAtiuJHsPeL-W_bHnB_YQ9_BQOf8u72AWIJQ5i2cH1bt4aTZVQVYGQ1qUYZBufzOoSTVrN4s3XavEx3oKWBo5n0BybGMPSXn_ZXXt9KbYN0LqoMIRO1Yp7rSyY3Zd0mub9oXqnG1284iX0l4eJz5aFqAnHrqDWWPNcdwyDs3klTxGQoNQok6OIiQHIXVHj-NzXyUqq5DD9dIVtDdGi-boIWbFyFzJBidBfgtkevPI3FOAhINeKcrOG1Rt_ilNSjyzEtsZd1Jt_7u_6r0n_2byyyEawl9O-XqNy0]--></g></svg>

<svg xmlns="http://www.w3.org/2000/svg" width="617" height="1074" viewBox="0 0 617 1074"><rect width="292" height="39.789" x="7" y="1028.3" fill="#3D176E" rx="2.5" ry="2.5" style="stroke:#000d19;stroke-width:.5"/><circle cx="22" cy="1048.195" r="11" fill="#ADD1B2" style="stroke:#181818;stroke-width:1"/><path d="M24.969 1053.835q-.578.297-1.219.438-.64.156-1.344.156-2.5 0-3.828-1.64-1.312-1.657-1.312-4.782t1.312-4.781q1.328-1.657 3.828-1.657.703 0 1.344.157.656.156 1.219.453v2.719q-.625-.578-1.219-.844-.594-.281-1.219-.281-1.343 0-2.031 1.078-.687 1.062-.687 3.156t.687 3.172q.688 1.062 2.031 1.062.625 0 1.219-.265.594-.282 1.219-.86z"/><text x="41" y="1054.08" fill="#D9B8FF" font-family="Helvetica" font-size="17" textLength="250">aws_route53_resource_record</text><rect width="276" height="39.789" x="334" y="1028.3" fill="#3D176E" rx="2.5" ry="2.5" style="stroke:#000d19;stroke-width:.5"/><circle cx="349" cy="1048.195" r="11" fill="#ADD1B2" style="stroke:#181818;stroke-width:1"/><path d="M351.969 1053.835q-.578.297-1.219.438-.64.156-1.344.156-2.5 0-3.828-1.64-1.312-1.657-1.312-4.782t1.312-4.781q1.328-1.657 3.828-1.657.703 0 1.344.157.656.156 1.219.453v2.719q-.625-.578-1.219-.844-.594-.281-1.219-.281-1.344 0-2.031 1.078-.687 1.062-.687 3.156t.687 3.172q.688 1.062 2.031 1.062.625 0 1.219-.265.594-.282 1.219-.86z"/><text x="368" y="1054.08" fill="#D9B8FF" font-family="Helvetica" font-size="17" textLength="234">digitalocean_domain_record</text><rect width="196" height="468.539" x="214" y="438.76" fill="#3D176E" rx="2.5" ry="2.5" style="stroke:#000d19;stroke-width:.5"/><circle cx="257.8" cy="458.654" r="11" fill="#ADD1B2" style="stroke:#181818;stroke-width:1"/><path d="M260.769 464.295q-.578.297-1.219.438-.64.156-1.344.156-2.5 0-3.828-1.64-1.312-1.657-1.312-4.782t1.312-4.781q1.328-1.656 3.828-1.656.703 0 1.344.156.656.156 1.219.453v2.719q-.625-.579-1.219-.844-.594-.281-1.219-.281-1.344 0-2.031 1.078-.687 1.062-.687 3.156t.687 3.172q.688 1.062 2.031 1.062.625 0 1.219-.265.594-.281 1.219-.86z"/><text x="283.2" y="464.54" fill="#D9B8FF" font-family="Helvetica" font-size="17" textLength="90">dns_record</text><path d="M215 478.549h194" style="stroke:#000d19;stroke-width:.5"/><text x="225" y="500.544" fill="#D9B8FF" font-family="sans-serif" font-size="14" font-weight="bold" textLength="94">record_data</text><text x="319" y="500.544" fill="#D9B8FF" font-family="sans-serif" font-size="14" textLength="48">: string</text><text x="225" y="526.841" fill="#D9B8FF" font-family="sans-serif" font-size="14" font-weight="bold" textLength="110">record_expire</text><text x="335" y="526.841" fill="#D9B8FF" font-family="sans-serif" font-size="14" textLength="44">: int64</text><text x="225" y="553.138" fill="#D9B8FF" font-family="sans-serif" font-size="14" font-weight="bold" textLength="98">record_flags</text><text x="323" y="553.138" fill="#D9B8FF" font-family="sans-serif" font-size="14" textLength="44">: int64</text><text x="225" y="579.435" fill="#D9B8FF" font-family="sans-serif" font-size="14" font-weight="bold" textLength="130">record_minimum</text><text x="355" y="579.435" fill="#D9B8FF" font-family="sans-serif" font-size="14" textLength="44">: int64</text><text x="225" y="605.732" fill="#D9B8FF" font-family="sans-serif" font-size="14" font-weight="bold" textLength="117">record_mname</text><text x="342" y="605.732" fill="#D9B8FF" font-family="sans-serif" font-size="14" textLength="48">: string</text><text x="225" y="632.029" fill="#D9B8FF" font-family="sans-serif" font-size="14" font-weight="bold" textLength="93">record_port</text><text x="318" y="632.029" fill="#D9B8FF" font-family="sans-serif" font-size="14" textLength="44">: int64</text><text x="225" y="658.325" fill="#D9B8FF" font-family="sans-serif" font-size="14" font-weight="bold" textLength="117">record_priority</text><text x="342" y="658.325" fill="#D9B8FF" font-family="sans-serif" font-size="14" textLength="44">: int64</text><text x="225" y="684.622" fill="#D9B8FF" font-family="sans-serif" font-size="14" font-weight="bold" textLength="119">record_refresh</text><text x="344" y="684.622" fill="#D9B8FF" font-family="sans-serif" font-size="14" textLength="44">: int64</text><text x="225" y="710.919" fill="#D9B8FF" font-family="sans-serif" font-size="14" font-weight="bold" textLength="99">record_retry</text><text x="324" y="710.919" fill="#D9B8FF" font-family="sans-serif" font-size="14" textLength="44">: int64</text><text x="225" y="737.216" fill="#D9B8FF" font-family="sans-serif" font-size="14" font-weight="bold" textLength="110">record_rname</text><text x="335" y="737.216" fill="#D9B8FF" font-family="sans-serif" font-size="14" textLength="48">: string</text><text x="225" y="763.513" fill="#D9B8FF" font-family="sans-serif" font-size="14" font-weight="bold" textLength="103">record_serial</text><text x="328" y="763.513" fill="#D9B8FF" font-family="sans-serif" font-size="14" textLength="44">: int64</text><text x="225" y="789.81" fill="#D9B8FF" font-family="sans-serif" font-size="14" font-weight="bold" textLength="85">record_tag</text><text x="310" y="789.81" fill="#D9B8FF" font-family="sans-serif" font-size="14" textLength="48">: string</text><text x="225" y="816.107" fill="#D9B8FF" font-family="sans-serif" font-size="14" font-weight="bold" textLength="76">record_ttl</text><text x="301" y="816.107" fill="#D9B8FF" font-family="sans-serif" font-size="14" textLength="44">: int64</text><text x="225" y="842.404" fill="#D9B8FF" font-family="sans-serif" font-size="14" font-weight="bold" textLength="95">record_type</text><text x="320" y="842.404" fill="#D9B8FF" font-family="sans-serif" font-size="14" textLength="48">: string</text><text x="225" y="868.7" fill="#D9B8FF" font-family="sans-serif" font-size="14" font-weight="bold" textLength="102">record_value</text><text x="327" y="868.7" fill="#D9B8FF" font-family="sans-serif" font-size="14" textLength="48">: string</text><text x="225" y="894.997" fill="#D9B8FF" font-family="sans-serif" font-size="14" font-weight="bold" textLength="114">record_weight</text><text x="339" y="894.997" fill="#D9B8FF" font-family="sans-serif" font-size="14" textLength="44">: int64</text><rect width="227" height="310.758" x="198.5" y="7" fill="#3D176E" rx="2.5" ry="2.5" style="stroke:#000d19;stroke-width:.5"/><circle cx="267.25" cy="26.895" r="11" fill="#ADD1B2" style="stroke:#181818;stroke-width:1"/><path d="M270.219 32.535q-.578.297-1.219.438-.64.156-1.344.156-2.5 0-3.828-1.64-1.312-1.657-1.312-4.782t1.312-4.781q1.328-1.656 3.828-1.656.703 0 1.344.156.656.156 1.219.453v2.719q-.625-.578-1.219-.844-.594-.281-1.219-.281-1.344 0-2.031 1.078-.687 1.062-.687 3.156t.687 3.172q.688 1.062 2.031 1.062.625 0 1.219-.265.594-.281 1.219-.86z"/><text x="292.75" y="32.78" fill="#D9B8FF" font-family="Helvetica" font-size="17" textLength="71">resource</text><path d="M199.5 46.789h225" style="stroke:#000d19;stroke-width:.5"/><text x="209.5" y="68.784" fill="#D9B8FF" font-family="sans-serif" font-size="14" font-weight="bold" textLength="29">age</text><text x="238.5" y="68.784" fill="#D9B8FF" font-family="sans-serif" font-size="14" textLength="66">: duration</text><text x="209.5" y="95.081" fill="#D9B8FF" font-family="sans-serif" font-size="14" font-weight="bold" textLength="43">atime</text><text x="252.5" y="95.081" fill="#D9B8FF" font-family="sans-serif" font-size="14" textLength="70">: datetime</text><text x="209.5" y="121.378" fill="#D9B8FF" font-family="sans-serif" font-size="14" font-weight="bold" textLength="43">ctime</text><text x="252.5" y="121.378" fill="#D9B8FF" font-family="sans-serif" font-size="14" textLength="70">: datetime</text><text x="209.5" y="147.675" fill="#D9B8FF" font-family="sans-serif" font-size="14" font-weight="bold" textLength="14">id</text><text x="223.5" y="147.675" fill="#D9B8FF" font-family="sans-serif" font-size="14" textLength="48">: string</text><text x="209.5" y="173.972" fill="#D9B8FF" font-family="sans-serif" font-size="14" font-weight="bold" textLength="33">kind</text><text x="242.5" y="173.972" fill="#D9B8FF" font-family="sans-serif" font-size="14" textLength="48">: string</text><text x="209.5" y="200.269" fill="#D9B8FF" font-family="sans-serif" font-size="14" font-weight="bold" textLength="90">last_access</text><text x="299.5" y="200.269" fill="#D9B8FF" font-family="sans-serif" font-size="14" textLength="66">: duration</text><text x="209.5" y="226.565" fill="#D9B8FF" font-family="sans-serif" font-size="14" font-weight="bold" textLength="90">last_update</text><text x="299.5" y="226.565" fill="#D9B8FF" font-family="sans-serif" font-size="14" textLength="66">: duration</text><text x="209.5" y="252.862" fill="#D9B8FF" font-family="sans-serif" font-size="14" font-weight="bold" textLength="48">mtime</text><text x="257.5" y="252.862" fill="#D9B8FF" font-family="sans-serif" font-size="14" textLength="70">: datetime</text><text x="209.5" y="279.159" fill="#D9B8FF" font-family="sans-serif" font-size="14" font-weight="bold" textLength="43">name</text><text x="252.5" y="279.159" fill="#D9B8FF" font-family="sans-serif" font-size="14" textLength="48">: string</text><text x="209.5" y="305.456" fill="#D9B8FF" font-family="sans-serif" font-size="14" font-weight="bold" textLength="34">tags</text><text x="243.5" y="305.456" fill="#D9B8FF" font-family="sans-serif" font-size="14" textLength="171">: dictionary[string, string]</text><path fill="none" d="M206.505 921.61c-21.85 51.29-34.625 81.27-45.285 106.28m52.34-122.84-12.575 14.208 11.04 4.703z" style="stroke:#ffaf37;stroke-width:2"/><g fill="none"><path d="M417.575 920.263c22.29 51.97 35.455 82.677 46.245 107.857" style="stroke:#ffaf37;stroke-width:2"/><path d="m410.48 903.72 1.58 18.908 11.03-4.73z" style="stroke:#ffaf37;stroke-width:2"/></g><path fill="none" d="M312 336.07v102.32m0-120.32-6 18h12z" style="stroke:#ffaf37;stroke-width:2"/></svg>
